X:467
T:Verdel of Scott
C:Ron Pennington
N:Transcribed by Greg Rohrer
R:bluegrass
L:1/8
Q:1/4=220
M:4/4
K:F
|: "F"Ac2d cA FA | f2 F2 {G}A4 | {G}A3c AG FD | CD FA (3GAG F2 | Ac2d cA FA | 
f2 F2 {G}A2 GA | "Bb"B2 A2 G2 FD |1 EC EG "F"F4 :|2 EC EG "F"F2 EF |: "C"GA BG AF GE | 
"F"FE DC A,C EF | "C"GA BG AG FG | "F"Ac cd c2 EF | "C"GA BG AF GE | "F"FE DC A,C G,A, | 
"Bb"B,A, B,C DC B,D |1 CD EG "F"F2 EF :|2 CD EG "F"F4 | 


